docs/img/icons/basket-d.svg

<svg width="96" height="96" viewBox="0 0 96 96" fill="none" xmlns="http://www.w3.org/2000/svg">
<rect width="96" height="96" fill="#3B3B3B"/>
<path d="M42 62C42.5523 62 43 61.5523 43 61C43 60.4477 42.5523 60 42 60C41.4477 60 41 60.4477 41 61C41 61.5523 41.4477 62 42 62Z" stroke="white" stroke-width="2" stroke-linecap="round" stroke-linejoin="round"/>
<path d="M54 62C54.5523 62 55 61.5523 55 61C55 60.4477 54.5523 60 54 60C53.4477 60 53 60.4477 53 61C53 61.5523 53.4477 62 54 62Z" stroke="white" stroke-width="2" stroke-linecap="round" stroke-linejoin="round"/>
<path d="M32 35H36.7273L39.8945 51.9603C40.0026 52.5434 40.2986 53.0672 40.7307 53.4401C41.1629 53.8129 41.7036 54.0109 42.2582 53.9995H53.7455C54.3001 54.0109 54.8408 53.8129 55.2729 53.4401C55.705 53.0672 56.001 52.5434 56.1091 51.9603L58 41.3332H37.9091" stroke="white" stroke-width="2" stroke-linecap="round" stroke-linejoin="round"/>
<circle cx="58.5" cy="35.5" r="11.5" fill="#397345"/>
<path d="M61.2816 35.777C61.2816 36.4223 61.1606 36.998 60.9186 37.504C60.6766 38.0027 60.3466 38.395 59.9286 38.681C59.5106 38.967 59.0339 39.11 58.4986 39.11C57.9632 39.11 57.4866 38.967 57.0686 38.681C56.6506 38.395 56.3206 38.0027 56.0786 37.504C55.8366 36.998 55.7156 36.4223 55.7156 35.777C55.7156 35.1317 55.8366 34.5597 56.0786 34.061C56.3206 33.555 56.6506 33.159 57.0686 32.873C57.4866 32.5797 57.9632 32.433 58.4986 32.433C59.0339 32.433 59.5106 32.5797 59.9286 32.873C60.3466 33.159 60.6766 33.555 60.9186 34.061C61.1606 34.5597 61.2816 35.1317 61.2816 35.777ZM60.3026 35.777C60.3026 35.293 60.2256 34.8677 60.0716 34.501C59.9176 34.1343 59.7049 33.8483 59.4336 33.643C59.1622 33.4377 58.8506 33.335 58.4986 33.335C58.1392 33.335 57.8239 33.4377 57.5526 33.643C57.2812 33.8483 57.0686 34.1343 56.9146 34.501C56.7606 34.8677 56.6836 35.293 56.6836 35.777C56.6836 36.261 56.7606 36.6863 56.9146 37.053C57.0686 37.4123 57.2812 37.6947 57.5526 37.9C57.8239 38.1053 58.1392 38.208 58.4986 38.208C58.8506 38.208 59.1622 38.1053 59.4336 37.9C59.7049 37.6947 59.9176 37.4123 60.0716 37.053C60.2256 36.6863 60.3026 36.261 60.3026 35.777Z" fill="white"/>
</svg>

<svg width="96" height="96" fill="none" xmlns="http://www.w3.org/2000/svg"><path fill="#3B3B3B" d="M0 0h96v96H0z"/><path d="M42 62a1 1 0 100-2 1 1 0 000 2zm12 0a1 1 0 100-2 1 1 0 000 2zM32 35h4.727l3.168 16.96a2.57 2.57 0 00.836 1.48c.432.373.973.57 1.527.56h11.487a2.264 2.264 0 001.528-.56 2.57 2.57 0 00.836-1.48L58 41.333H37.91" stroke="#fff" stroke-width="2" stroke-linecap="round" stroke-linejoin="round"/><circle cx="58.5" cy="35.5" r="11.5" fill="#397345"/><path d="M61.282 35.777c0 .645-.121 1.221-.363 1.727a2.952 2.952 0 01-.99 1.177 2.472 2.472 0 01-1.43.429 2.472 2.472 0 01-1.43-.429 2.952 2.952 0 01-.99-1.177c-.242-.506-.363-1.082-.363-1.727s.12-1.217.363-1.716c.242-.506.572-.902.99-1.188a2.43 2.43 0 011.43-.44c.535 0 1.012.147 1.43.44.418.286.748.682.99 1.188.242.499.363 1.07.363 1.716zm-.98 0c0-.484-.076-.91-.23-1.276a2.033 2.033 0 00-.638-.858 1.508 1.508 0 00-.935-.308c-.36 0-.675.103-.946.308a2.033 2.033 0 00-.638.858c-.154.367-.231.792-.231 1.276s.077.91.23 1.276c.155.36.367.642.639.847.27.205.586.308.946.308.352 0 .663-.103.935-.308.27-.205.484-.488.638-.847.154-.367.23-.792.23-1.276z" fill="#fff"/></svg>
